X: 4531
T: Boring The Leather
R: jig
M: 6/8
K: Gmajor
|:B/A/|G2 E G2 B|d2 B cBA|G2 E G2 B|dBG A2 B|
G2 E G2 B|dBA B/c/de|gfg ege|dBG A2:|
|:B|d2 B gfg|d2 B d2 [eg]|d2 B gfg|dBG A2 B|
d2 B ge/f/g|a^ga b2 a|gfg e/f/ge|dBG A2:|

